tools/download-figma-icons/icons/outlined-medium/present.svg

<svg width="24" height="25" viewBox="0 0 24 25" fill="none" xmlns="http://www.w3.org/2000/svg">
<path d="M22.5 6.7575H17.3475C19.0875 5.46 19.59 3.6675 19.59 2.745C19.59 1.1325 18.5175 0.0075 16.995 0.0075C15.06 0.0075 14.1375 1.95 14.115 1.9875L12.0075 5.9175L9.915 2.025C9.8775 1.9425 8.955 0 7.02 0C5.49 0 4.425 1.125 4.425 2.7375C4.425 3.66 4.9275 5.46 6.6675 6.75H1.5C1.0875 6.75 0.75 7.0875 0.75 7.5V12C0.75 12.4125 1.0875 12.75 1.5 12.75H2.25V23.25C2.25 23.6625 2.5875 24 3 24H21C21.4125 24 21.75 23.6625 21.75 23.25V12.75H22.5C22.9125 12.75 23.25 12.4125 23.25 12V7.5C23.25 7.0875 22.9125 6.75 22.5 6.75V6.7575ZM13.485 8.2575V11.2575H10.515V8.2575H13.485ZM15.45 2.6625C15.45 2.6625 16.02 1.5075 16.9875 1.5075C17.67 1.5075 18.0825 1.9725 18.0825 2.745C18.0825 3.7575 17.1825 6.2325 13.29 6.69L15.45 2.67V2.6625ZM7.0125 1.5075C7.9875 1.5075 8.5425 2.655 8.565 2.7L10.7025 6.69C6.81 6.24 5.91 3.7575 5.91 2.745C5.91 1.9725 6.3225 1.5075 7.005 1.5075H7.0125ZM2.25 8.2575H9.015V11.2575H2.25V8.2575ZM3.75 12.7575H9.0075V22.5075H3.7575V12.7575H3.75ZM10.5075 22.5075V12.7575H13.4775V22.5075H10.5075ZM20.235 22.5075H14.9775V12.7575H20.235V22.5075ZM21.735 11.2575H14.9775V8.2575H21.735V11.2575Z" fill="black"/>
</svg>

<svg width="24" height="25" viewBox="0 0 24 25" fill="none" xmlns="http://www.w3.org/2000/svg"><path d="M22.5 6.758h-5.152c1.74-1.298 2.242-3.09 2.242-4.013 0-1.613-1.073-2.738-2.595-2.738-1.935 0-2.858 1.943-2.88 1.98l-2.107 3.93-2.093-3.892C9.878 1.942 8.955 0 7.02 0 5.49 0 4.425 1.125 4.425 2.737c0 .923.503 2.723 2.243 4.013H1.5a.752.752 0 0 0-.75.75V12c0 .412.337.75.75.75h.75v10.5c0 .413.337.75.75.75h18c.413 0 .75-.337.75-.75v-10.5h.75c.413 0 .75-.338.75-.75V7.5a.752.752 0 0 0-.75-.75v.008Zm-9.015 1.5v3h-2.97v-3h2.97Zm1.965-5.595s.57-1.155 1.538-1.155c.682 0 1.095.464 1.095 1.237 0 1.012-.9 3.487-4.793 3.945l2.16-4.02v-.007ZM7.012 1.507c.976 0 1.53 1.147 1.553 1.192l2.138 3.99C6.81 6.24 5.91 3.757 5.91 2.745c0-.773.412-1.238 1.095-1.238h.008ZM2.25 8.258h6.765v3H2.25v-3Zm1.5 4.5h5.258v9.75h-5.25v-9.75H3.75Zm6.758 9.75v-9.75h2.97v9.75h-2.97Zm9.727 0h-5.258v-9.75h5.258v9.75Zm1.5-11.25h-6.758v-3h6.758v3Z" fill="currentColor"/></svg>
